packages/icons/src/components/Logo/assets/light/deepseek.svg

<svg width="20" height="20" viewBox="0 0 20 20" fill="none" xmlns="http://www.w3.org/2000/svg">
<g>
<path d="M17.832 4.98802C17.6627 4.90535 17.5894 5.06335 17.4907 5.14402C17.4567 5.17002 17.428 5.20402 17.3994 5.23469C17.1514 5.49935 16.862 5.67269 16.484 5.65202C15.9314 5.62135 15.4594 5.79469 15.042 6.21735C14.9534 5.69602 14.6587 5.38535 14.2107 5.18535C13.976 5.08135 13.7387 4.97802 13.574 4.75202C13.4594 4.59135 13.428 4.41202 13.3707 4.23602C13.334 4.12935 13.2974 4.02069 13.1754 4.00269C13.042 3.98202 12.99 4.09335 12.938 4.18669C12.7294 4.56802 12.6487 4.98802 12.6567 5.41335C12.6747 6.37069 13.0787 7.13335 13.882 7.67535C13.9734 7.73735 13.9967 7.80002 13.968 7.89069C13.9134 8.07735 13.848 8.25869 13.7907 8.44602C13.754 8.56535 13.6994 8.59069 13.5714 8.53935C13.1389 8.35348 12.746 8.08644 12.414 7.75269C11.8427 7.20069 11.3267 6.59135 10.6827 6.11402C10.5335 6.00377 10.3803 5.89903 10.2234 5.80002C9.56669 5.16202 10.31 4.63802 10.482 4.57602C10.662 4.51069 10.544 4.28802 9.96269 4.29069C9.38136 4.29335 8.84936 4.48735 8.17136 4.74669C8.07061 4.78529 7.96695 4.81584 7.86136 4.83802C7.22778 4.71864 6.57979 4.69572 5.93936 4.77002C4.68269 4.91002 3.67936 5.50469 2.94136 6.51869C2.05469 7.73735 1.84603 9.12269 2.10136 10.5667C2.37003 12.0894 3.14736 13.35 4.34136 14.3354C5.58003 15.3574 7.00603 15.858 8.63336 15.762C9.62136 15.7054 10.722 15.5727 11.9627 14.522C12.276 14.678 12.604 14.74 13.1494 14.7867C13.5694 14.826 13.9734 14.7667 14.286 14.7014C14.776 14.5974 14.742 14.1434 14.5654 14.0607C13.1287 13.3914 13.444 13.664 13.1567 13.4434C13.8874 12.5794 14.9874 11.682 15.418 8.77469C15.4514 8.54335 15.4227 8.39802 15.418 8.21135C15.4154 8.09802 15.4414 8.05335 15.5714 8.04069C15.9321 8.00327 16.2819 7.8957 16.6014 7.72402C17.532 7.21535 17.908 6.38069 17.9967 5.37935C18.01 5.22602 17.994 5.06869 17.832 4.98802ZM9.72069 14C8.32803 12.9054 7.65269 12.5447 7.37403 12.56C7.11269 12.576 7.16003 12.874 7.21736 13.0687C7.27736 13.2607 7.35536 13.3927 7.46469 13.5614C7.54069 13.6727 7.59269 13.8387 7.38936 13.9634C6.94069 14.2407 6.16136 13.87 6.12469 13.852C5.21736 13.3174 4.45803 12.612 3.92403 11.6474C3.40803 10.7187 3.10803 9.72269 3.05869 8.65935C3.04536 8.40202 3.12069 8.31135 3.37669 8.26469C3.71277 8.20037 4.05711 8.19159 4.39603 8.23869C5.81736 8.44669 7.02669 9.08202 8.04136 10.088C8.62003 10.6614 9.05803 11.346 9.50936 12.0154C9.98936 12.726 10.5054 13.4034 11.1627 13.958C11.3947 14.1527 11.5794 14.3007 11.7567 14.4094C11.222 14.4694 10.33 14.4827 9.72069 14ZM10.3874 9.70669C10.3872 9.67357 10.3952 9.64092 10.4105 9.61157C10.4258 9.58221 10.4481 9.55702 10.4753 9.53819C10.5026 9.51935 10.534 9.50743 10.5669 9.50345C10.5997 9.49947 10.6331 9.50356 10.664 9.51535C10.7035 9.5295 10.7375 9.5556 10.7614 9.59002C10.7853 9.62444 10.7979 9.66545 10.7974 9.70735C10.7975 9.73443 10.7922 9.76124 10.7818 9.78625C10.7714 9.81125 10.7561 9.83394 10.7369 9.85299C10.7177 9.87204 10.6948 9.88707 10.6697 9.8972C10.6446 9.90734 10.6178 9.91237 10.5907 9.91202C10.5638 9.91211 10.5372 9.90684 10.5124 9.89652C10.4876 9.88621 10.4651 9.87104 10.4462 9.85192C10.4274 9.8328 10.4125 9.81011 10.4025 9.78517C10.3925 9.76023 10.3869 9.73355 10.3874 9.70669ZM12.4607 10.7707C12.3274 10.8247 12.1947 10.8714 12.0674 10.8774C11.8758 10.884 11.6878 10.8242 11.5354 10.708C11.3527 10.5547 11.222 10.4694 11.1674 10.2027C11.1485 10.0724 11.1521 9.93979 11.178 9.81069C11.2247 9.59269 11.1727 9.45269 11.0187 9.32602C10.894 9.22202 10.7347 9.19335 10.56 9.19335C10.5002 9.18988 10.4421 9.17204 10.3907 9.14135C10.3174 9.10535 10.2574 9.01469 10.3147 8.90269C10.3334 8.86669 10.4214 8.77869 10.4427 8.76269C10.68 8.62802 10.954 8.67202 11.2067 8.77335C11.4414 8.86935 11.6187 9.04535 11.874 9.29469C12.1347 9.59535 12.182 9.67869 12.3307 9.90402C12.448 10.0807 12.5547 10.262 12.6274 10.4694C12.672 10.5994 12.6147 10.7054 12.4607 10.7707Z" fill="#4D6BFE"/>
</g>
</svg>

<svg xmlns="http://www.w3.org/2000/svg" width="20" height="20" fill="none" viewBox="0 0 20 20">
    <path fill="#4d6bfe" d="M17.832 4.988c-.17-.083-.243.075-.341.156-.034.026-.063.06-.092.09-.248.265-.537.439-.915.418-.553-.03-1.025.143-1.442.565-.089-.521-.383-.832-.831-1.032-.235-.104-.472-.207-.637-.433-.115-.16-.146-.34-.203-.516-.037-.107-.074-.215-.196-.233-.133-.021-.185.09-.237.184a2.43 2.43 0 0 0-.281 1.226c.018.958.422 1.72 1.225 2.262.091.062.115.125.086.216-.055.186-.12.368-.177.555-.037.12-.092.145-.22.093a3.7 3.7 0 0 1-1.157-.786c-.571-.552-1.087-1.162-1.731-1.639a8 8 0 0 0-.46-.314c-.656-.638.087-1.162.259-1.224.18-.065.062-.288-.52-.285-.58.002-1.113.196-1.79.456q-.152.058-.31.091a6.4 6.4 0 0 0-1.923-.068c-1.256.14-2.26.735-2.998 1.749-.886 1.218-1.095 2.604-.84 4.048.269 1.522 1.046 2.783 2.24 3.768 1.239 1.022 2.665 1.523 4.292 1.427.988-.057 2.089-.19 3.33-1.24.313.156.641.218 1.186.265.42.039.824-.02 1.137-.086.49-.104.456-.558.28-.64-1.437-.67-1.122-.397-1.41-.618.731-.864 1.831-1.761 2.262-4.668.033-.232.005-.377 0-.564-.003-.113.023-.158.153-.17.361-.038.71-.145 1.03-.317.931-.509 1.307-1.343 1.396-2.345.013-.153-.003-.31-.165-.391M9.721 14c-1.393-1.095-2.068-1.455-2.347-1.44-.261.016-.214.314-.157.509.06.192.138.324.248.492.076.112.128.278-.076.402-.448.278-1.228-.093-1.264-.111-.908-.535-1.667-1.24-2.201-2.205a6.7 6.7 0 0 1-.865-2.988c-.014-.257.062-.348.318-.394a3.1 3.1 0 0 1 1.019-.026c1.421.208 2.63.843 3.645 1.849.579.573 1.017 1.258 1.468 1.927.48.711.996 1.388 1.654 1.943.232.195.416.343.594.451-.535.06-1.427.074-2.036-.409m.666-4.293a.203.203 0 0 1 .277-.192.2.2 0 0 1 .133.192.203.203 0 0 1-.206.205.2.2 0 0 1-.204-.205m2.074 1.064c-.134.054-.266.1-.394.106a.83.83 0 0 1-.532-.169c-.182-.153-.313-.239-.368-.505a1.2 1.2 0 0 1 .011-.392c.047-.218-.005-.358-.16-.485-.124-.104-.283-.133-.458-.133a.4.4 0 0 1-.17-.052.17.17 0 0 1-.075-.238.8.8 0 0 1 .128-.14c.237-.135.511-.091.764.01.234.096.412.272.667.522.26.3.308.384.457.609.117.177.224.358.296.565.045.13-.012.236-.166.302"/>
</svg>
